!!!!SEGMENT: pl-wtm--r-513-4-m_moniuszko-stanislaw--flis-piesn-flisa.krn
!!!cenid: 18xx:2980
!!!COM: Moniuszko, Stanisław
!!!COM-rismid: pe30008351
!!!CDT: 1819/05/05-1872/06/04
!!!CNT: Polish
!!!GTL: Flis
!!!OTL: Pieśń Flisa
!!!PDT: 1858
!!!AGN: Secular
!!!SMS-siglum: PL-Wtm
!!!SMS-shelfmark: R 513-4/M
!!!SMS-shelfwork: G
!!!SMS-variant:
!!!SMS-altvar:
!!!NIFC-rismid: 1001086416
!!!URL-scan: http://repozytorium.nifc.pl/skany/pl-wtm-nut--r513m-4
!!!ONB-nifc:
!!!OMD: Moderato
**kern	**kern	**dynam	**kern	**text	**text	**dynam
*group1	*group1	*	*	*	*	*
*part2	*part2	*part2	*part1	*part1	*part1	*part1
*staff3	*staff2	*	*staff1	*staff1	*staff1	*
*Iforte	*Iempty	*	*Iempty	*	*	*
*I"fortepian	*	*	*I"głos	*	*	*
*>[A,B,B1,B,B2,C]	*>[A,B,B1,B,B2,C]	*	*>[A,B,B1,B,B2,C]	*	*	*
*clefF4	*clefG2	*	*clefG2	*	*	*
*k[f#]	*k[f#]	*	*k[f#]	*	*	*
*G:	*G:	*	*G:	*	*	*
*M3/4	*M3/4	*	*M3/4	*	*	*
=1	=1	=1	=1	=1	=1	=1
*^	*	*	*	*	*	*
*>A	*>A	*>A	*	*>A	*	*	*
*all\right	*all\right	*all\right	*	*all\right	*	*	*
!LO:N:vis=2	!	!	!LO:DY:rj	!	!	!	!
*	*2\right	*	*	*	*	*	*
8GG/L	(2.GG\	(>8g/L	p	2.ryy	.	.	.
8D/	.	8b/J	.	.	.	.	.
8E/	.	4.B/	.	.	.	.	.
8D/	.	.	.	.	.	.	.
8G/	.	.	.	.	.	.	.
8D/J)	.	8d/	.	.	.	.	.
=2	=2	=2	=2	=2	=2	=2	=2
!LO:N:vis=2	!	!	!	!	!	!	!
8GG/L	(2.GG\	8g/L	.	2.ryy	.	.	.
8D/	.	8b/J	.	.	.	.	.
8E/	.	4.B/	.	.	.	.	.
8D/	.	.	.	.	.	.	.
8G/	.	.	.	.	.	.	.
8D/J)	.	8d/	.	.	.	.	.
=3	=3	=3	=3	=3	=3	=3	=3
!LO:N:vis=2	!	!	!	!	!	!	!
8GG/L	(2.GG\	8g/L	.	2.ryy	.	.	.
8D/	.	8b/J	.	.	.	.	.
8B/	.	4.dd/	.	.	.	.	.
8D/	.	.	.	.	.	.	.
8G/	.	.	.	.	.	.	.
8D/J)	.	8b/	.	.	.	.	.
=4	=4	=4	=4	=4	=4	=4	=4
8GG/L	4GG\	8a/L	.	2.ryy	.	.	.
8D/	.	8f#/J	.	.	.	.	.
8A/	4r	2d/)	.	.	.	.	.
8D/	.	.	.	.	.	.	.
8c/ 8F#/	4r	.	.	.	.	.	.
8D/J	.	.	.	.	.	.	.
=5!|:	=5!|:	=5!|:	=5!|:	=5!|:	=5!|:	=5!|:	=5!|:
!LO:N:vis=2	!	!	!	!	!	!	!
*>B	*>B	*>B	*	*>B	*	*	*
8GG/L	(2.GG\	(8g/L	.	2.ryy	.	.	.
8D/	.	8b/J	.	.	.	.	.
8E/	.	4.B/	.	.	.	.	.
8D/	.	.	.	.	.	.	.
8G/	.	.	.	.	.	.	.
8D/J)	.	8d/	.	.	.	.	.
!!LO:LB:g=original
=6	=6	=6	=6	=6	=6	=6	=6
!LO:N:vis=2	!	!	!	!	!	!	!
(8GG/L	2.GG\	8g/L	.	2.r	.	.	.
8D/	.	8b/J	.	.	.	.	.
8E/	.	4.ee\	.	.	.	.	.
8D/	.	.	.	.	.	.	.
8G/	.	.	.	.	.	.	.
8D/J)	.	8dd\)	.	.	.	.	.
*v	*v	*	*	*	*	*	*
=7	=7	=7	=7	=7	=7	=7
(8GG/L	(8cc\L	.	2.r	.	.	.
8D/	8a\J	.	.	.	.	.
8c/ 8F#/	4.dd\	.	.	.	.	.
8D/	.	.	.	.	.	.
8B/ 8G/	.	.	.	.	.	.
8D/J)	8b\)	.	.	.	.	.
=8	=8	=8	=8	=8	=8	=8
8DD'/L	(8a/L	.	2.r	.	.	.
(8D/	8f#/J	.	.	.	.	.
8F#/	2d/)	.	.	.	.	.
8E/	.	.	.	.	.	.
8C/	.	.	.	.	.	.
8AA/J)	.	.	.	.	.	.
=9	=9	=9	=9	=9	=9	=9
*^	*	*	*	*	*	*
!	!	!	!LO:DY:rj	!LO:TX:a:t=molto simplice:color=purple	!	!	!
*	*	*	*	*	*color:purple	*color:purple	*
8r	2.GG\	(>2g/ 2d/ 2B/	p	8g/	Pły-	Wyj-	.
(<8D/L	.	.	.	8b/	-ną	-cie	.
8G/	.	.	.	4dd\	tra-	so-	.
8F#/	.	.	.	.	.	.	.
8E/	.	4g/ 4c#X/ 4A#X/)	.	8cc#\	-twy	-bie	.
8G/J)	.	.	.	8ee\	po	tam	.
=10	=10	=10	=10	=10	=10	=10	=10
8r	2.GG\	4g/ 4d/ 4B/	.	2dd\	Wi-	wi-	.
(<8D/L	.	.	.	.	.	.	.
8D#X/	.	4g/ 4B/	.	.	.	.	.
8E/	.	.	.	.	.	.	.
.	.	(8qb/ 8qd/	.	.	.	.	.
8E#X/	.	4a/ 4c/)	.	4ccn\	-śle,	-chry	.
8F#/J)	.	.	.	.	.	.	.
!!LO:LB:g=original
=11	=11	=11	=11	=11	=11	=11	=11
8r	2.GG\	(8g/L 8B/	.	8b\	pły-	niech	.
(<8D/L	.	8b/J	.	8dd\	-ną	sza-	.
8B/	.	4d/)	.	4g/	i	-le-	.
8D/	.	.	.	.	.	.	.
8A/	.	4f#/ 4c/	.	8f#/L	ga-	-ją	.
8D/J)	.	.	.	8a/J	.	.	.
=12	=12	=12	=12	=12	=12	=12	=12
8r	2.GG\	(8g/L	.	2g/	-la-	wo-	.
(<8G/L	.	8B/J	.	.	.	.	.
8F#/	.	4d/)	.	.	.	.	.
8Fn/	.	.	.	.	.	.	.
8E/	.	4g/ 4B/	.	8g/	-ry,	-dy!	.
8E-X/J)	.	.	.	8r	.	.	.
=13	=13	=13	=13	=13	=13	=13	=13
!	!	!LO:S:s=1:note:problem:note-level slur 	!	!	!	!	!
8r	2.GG\	(8a/L 8c/	.	8a\	z da-	niech	.
(<8D/L	.	8b/J	.	8b\	-la	tam	.
8E-X/	.	8cc/) 8c/	.	4cc\	wi-	bi-	.
8En/	.	8r	.	.	.	.	.
8Fn/	.	8e/ 8c/	.	8b\	-dzę	-ją	.
8F#X/J)	.	8r	.	8a/	ich	pio-	.
=14	=14	=14	=14	=14	=14	=14	=14
*	*	*^	*	*	*	*	*
*	*	*	*	*	*2\right	*	*	*
8r	2.GG\	2b/	(>8B\L	.	2b\	brze-	-ru-	.
(<8G/L	.	.	8d\	.	.	.	.	.
8F#/	.	.	8B\	.	.	.	.	.
8Fn/	.	.	8d\	.	.	.	.	.
8E/	.	4r	8g\	.	4b\	-gi	-ny,	.
8D#X/J)	.	.	8b\J)	.	.	.	.	.
*v	*v	*	*	*	*	*	*	*
*	*v	*v	*	*	*	*	*
=15	=15	=15	=15	=15	=15	=15
(8D/L 8GG/	(8cc/L 8c/	.	8cc/L	a	nie-	.
8G/J	8g/	.	8g/J	.	-bo	.
8c\L	8e/	<	8e/L	na	og-	.
8G\	8g/	.	8g/J	.	.	.
8E\	8cc/	.	(8cc\	nich	-niem	.
8C\J)	8ee/J)	[[	8ee\)	sa-	.	.
!!LO:LB:g=original
=16	=16	=16	=16	=16	=16	=16
*^	*	*	*	*	*	*
8BB/L	(4GG\	(4dd/ (4g/	>	2gg\	-san-	bu-	.
8D/	.	.	.	.	.	.	.
8G/	2ryy	8g/ 8d/))	.	.	.	.	.
8B/	.	8r	.	.	.	.	.
8d/	.	8g'/	.	8dd\	-ki,	-cha!	.
8D/J)	.	8r	]	8r	.	.	.
=17	=17	=17	=17	=17	=17	=17	=17
8qD/	.	.	.	.	.	.	.
!	!	!	!LO:DY:b=2:t=mf.:rj	!	!	!	!
8G/L	(2GG\	(8d/L 8B-X/	mf	8dd\	a	fli-	.
8D/J	.	8g/J)	.	8cc\	tam	-sak	.
4G/	.	(8g/L 8d/ 8B-/	.	(4b-X\	sto-	bie-	.
.	.	8b-X/J)	.	.	.	.	.
8Fn/L	4AA\	(8cc/L 8c/	.	8cc\)	.	-ży	.
8E-X/J	.	8fn/J)	.	8ee-X\	-i	do	.
=18	=18	=18	=18	=18	=18	=18	=18
!	!	!	!	!	!	!	!LO:DY:a
8r	2.BB-X\)	8dd/ 8d/	>	2dd\	do-	brze-	>
(<8D/L	.	8r	.	.	.	.	.
8E-X/	.	8d/	.	.	.	.	.
8En/	.	8r	.	.	.	.	.
8Fn/	.	8d/	.	4dd\	-mek	-gu	]
[8F#X/J)	.	8r	]]	.	.	.	.
=19	=19	=19	=19	=19	=19	=19	=19
*	*	*^	*	*	*	*	*
!	!	!	!	!	!	!	!	!LO:DY:rj
8F#/]	2.BBn\	(8dd/L	4d\	pp	8dd\	bia-	bo	pp
(<8F#/L	.	8cc#X/J	.	.	8cc#X\	-ły	tam	.
8B/	.	4b/)	4d\	.	4b\	cho-	jest	.
8F#/	.	.	.	.	.	.	.	.
8G/	.	(8a#X/L	4e\	.	8cc#\L	-ciaż	za-	.
8E/J)	.	8cc#/J	.	.	8ee\J	.	.	.
*	*	*v	*v	*	*	*	*	*
=20	=20	=20	=20	=20	=20	=20	=20
8r	2BB\	8b/ 8d/)	.	2dd\	sta-	-gro-	.
(<8D/L	.	8r	.	.	.	.	.
8G/	.	8f#/ 8d/	.	.	.	.	.
8D/	.	8r	.	.	.	.	.
8BB/	4r	8b/ 8f#/ 8d/	.	4b\	-ry,	-da,	.
8GG/J)	.	8r	.	.	.	.	.
*v	*v	*	*	*	*	*	*
!!LO:PB:g=original
=21	=21	=21	=21	=21	=21	=21
(<2.C#X^/	8r	.	4.a/	a	w tej	.
.	(8A/L	.	.	.	.	.
.	8a/ 8e/	.	.	.	.	.
.	8A/	.	16cc#X\LL	w tym	za-	.
.	.	.	16b\JJ	.	.	.
.	8g/ 8e/	.	8a/	dom-	-gro-	.
.	8A/J)	.	8g/	-ku	-dzie	.
=22	=22	=22	=22	=22	=22	=22
4D/	(8f#/L 8d/	.	8f#/	jest	cze-	.
.	8A/	<	8a/	o-	-ka	.
4BB/	8f#/ 8d/	.	4dd\	-kien-	tęsk-	.
.	8B/	.	.	.	.	.
4FF#/)	8a/ 8c#X/	.	4ff#\	-ko	-na	.
.	8f#/J)	[[	.	.	.	.
=23	=23	=23	=23	=23	=23	=23
*	*	*	*^	*	*	*
(4GG/	(8g/L 8e/	.	8ee/	8ee\L	fli-	cze-	.
.	8B/	.	8b/	8b\J	.	-ka	.
8AA/)	8f#/ 8d/	.	4dd/	4dd\	-sa-	go	.
8r	8A/J)	.	.	.	.	.	.
(8e\L 8G\	4ryy	.	8cc#X/L	8cc#\	-ka	dzie-	.
8A\J)	.	.	16ryy	16r	.	.	.
.	.	.	16a/Jk	16a\	ko-	.	.
*	*	*	*v	*v	*	*	*
=24	=24	=24	=24	=24	=24	=24
*^	*	*	*	*	*	*
*	*ped	*	*	*	*	*	*
!	!	!	!LO:DY:rj	!	!	!	!
8r	2.D\	(8dd/L 8f#/	f	2dd\	-chan-	-wu-	.
(<8A/L	.	8ff#/J	.	.	.	.	.
8d/	.	4.f#^/	.	.	.	.	.
8A/	.	.	.	.	.	.	.
8d/ 8F#/	.	.	.	4dd\	-ka.	-cha.	.
8A/J)	.	8a/	.	.	.	.	.
=25	=25	=25	=25	=25	=25	=25	=25
8r	2.D\	8dd\L	.	2.r	.	.	.
(<8A/L	.	8ff#\J	.	.	.	.	.
8d/ 8F#/	.	4.aa\	.	.	.	.	.
8A/	.	.	.	.	.	.	.
*Xped	*	*	*	*	*	*	*
8d/ 8F#/	.	.	.	.	.	.	.
8A/J)	.	8gg#X\	.	.	.	.	.
!!LO:LB:g=original
=26	=26	=26	=26	=26	=26	=26	=26
(8G#X/L 8E#X/	2.D\	8bb\L	>	2.r	.	.	.
16A/L 16F#/	.	8aa\	.	.	.	.	.
16A/JJ)	.	.	.	.	.	.	.
(8d/L	.	8gg\	.	.	.	.	.
8A#X/	.	8cc#X\	.	.	.	.	.
8c#X/	.	8ee\	.	.	.	.	.
8B/J)	.	8dd\J	.	.	.	.	.
*v	*v	*	*	*	*	*	*
=27	=27	=27	=27	=27	=27	=27
(8A\L	8ff#\L	.	2.r	.	.	.
8F#\	8a\	.	.	.	.	.
8d\	8dd\	]	.	.	.	.
8A\	8f#\	.	.	.	.	.
8f#\J)	8a\)	.	.	.	.	.
8r	8d\J	.	.	.	.	.
=28	=28	=28	=28	=28	=28	=28
*	*^	*	*	*	*	*
!LO:TX:t=P:problem:mixed beam	!	!	!LO:DY:rj	!	!	!	!
(8C#X/L	(8a/L	4e\	p <	8a/	w tem	To	.
8Cn/	8a#X/J	.	.	8a#X/	o-	też	.
8BB/	4.b^</	4.d#X\	[	4.b/	-kien-	sza-	.
8B\	.	.	.	.	.	.	.
8A\	.	.	.	.	.	.	.
8F#\J	8f#/	8d#\	.	8f#/	-ku	-lej	.
=29	=29	=29	=29	=29	=29	=29	=29
8E\L	8g/L	4.e\	.	8g/	mo-	Wi-	.
8F#\	8a/J	.	.	8a/	-ja	-sło	.
8G\	4b/	.	.	4b\	wia-	sta-	.
8E\	.	8g\	.	.	.	.	.
8A\	4cc#X/)	8e\L	.	4cc#X\	-ra!	-ra!	.
8G\J)	.	8a\J	.	.	.	.	.
=30	=30	=30	=30	=30	=30	=30	=30
!	!	!LO:TX:b:t=cres…:ext=ut:problem:dynamics with extension lines	!LO:HP:b:t=cres…	!	!	!	!LO:DY:a
(8F#\L	(8dd/L	4a\	<	8dd\	u-	Bóg	<
8Fn\	8dd#X/J	.	.	8dd#X\	-ma-	po-	.
8E\	4.ee/	4.g#X^\	[	4.ee\	-i-	-mo-	.
8B\	.	.	.	.	.	.	.
8e\	.	.	.	.	.	.	.
8d\J)	8b/)	8g#\	.	8b\	-ła	-że	.
!!LO:PB:g=original
=31	=31	=31	=31	=31	=31	=31	=31
*	*	*2\right	*	*	*	*	*
8qFF#/	.	.	.	.	.	.	.
(8c\L	(4.cc/	2a\	>	4.cc\	go	że	.
8B\	.	.	.	.	.	.	.
8A\	.	.	.	.	.	.	.
!	!	!	!	!	!	!	!LO:DY:a
8G\	8ee/L	.	.	8ee\	wio-	nie	>
8F#\ 8D\)	8dd/	8a\L	]	8dd\	-sen-	zgi-	.
8A\J	8cc/J)	8f#\J	.	8cc\	-ka!	-nę!	]
*	*v	*v	*	*	*	*	*
=32	=32	=32	=32	=32	=32	=32
*^	*	*	*	*	*	*
!LO:N:vis=2	!	!	!LO:DY:rj:t=p.	!	!	!	!LO:DY:t=p.
(<8GG/L	2.GG\	(8b/L 8g/	p	8b\	płyń-	a	p
8D/	.	8dd/J 8d/	.	8dd\	-że	jak	.
8B/	.	8b/ 8g/)	.	4.gg\	raź-	zbrak-	.
8D/	.	8r	.	.	.	.	.
8G/	.	4b/: 4g/: 4d/: 4B:/	.	.	.	.	.
8D/J)	.	.	.	8ff#\	-no	-nie	.
=33	=33	=33	=33	=33	=33	=33	=33
!LO:N:vis=2	!	!	!	!	!	!	!
8GG/L	(2.GG\	(8b/L 8g/	.	8ee\	Wi-	mi	.
8D/	.	8dd/J 8d/	.	8dd\	-sło	ga-	.
8B/	.	8b/ 8g/)	.	4b/	sta-	-le-	.
8D/	.	8r	.	.	.	.	.
8G/	.	8b/: 8g/: 8d/: 8B:/	.	4g/	-ra	-ra	.
8D/J)	.	8r	.	.	.	.	.
=34	=34	=34	=34	=34	=34	=34	=34
!LO:TX:t=P:problem:mixed beam	!	!	!	!	!	!	!
(8E-X/L	2.GG\	(8a/L 8f#/ 8c/	.	8a\	bo	to	.
8D/	.	8b/ 8g/ 8d/	.	8b\	mi	i	.
8C/	.	8cc/J 8a/ 8e-X/)	.	4cc\	pil-	wpław	.
8G/	.	8r	.	.	.	.	.
8F#/	.	8a/ 8d/	.	4cc\	-no	do	.
!LO:TX:a:i:t=m.d.	!	!	!	!	!	!	!
8c>\J)	.	8r	.	.	.	.	.
!!LO:LB:g=original
=35	=35	=35	=35	=35	=35	=35	=35
!LO:TX:t=P:problem:mixed beam	!	!LO:S:s=2:note:problem:note-level slur 	!LO:DY:rj	!	!	!	!
(8B>\L	2.GG\	8b/L (<8d/	f	8.b\	do	niej	.
!	!	!	!LO:HP:b=2	!	!	!	!
8G/	.	8g/J)	<	.	.	.	.
.	.	.	.	16ee\	o-	po-	.
8D/	.	8dd/ 8b/	.	4.dd\	-kien-	-pły-	.
8BB/	.	8r	.	.	.	.	.
8AA/	.	8dd/: 8a/: 8f#/: 8d:/	.	.	.	.	.
8D/J)	.	8r	[	8cc\	-ka!	-nę,	.
=36	=36	=36	=36	=36	=36	=36	=36
!LO:N:vis=2	!	!	!	!	!	!	!LO:DY:a
8GG/L	(2.GG\	(8b/L 8g/	f	8b\	płyń-	a	f
8D/	.	8dd/J 8d/	.	8dd\	-że	jak	.
8B/	.	8b/ 8g/)	.	4.gg\	raź-	zbrak-	.
8D/	.	8r	.	.	.	.	.
8G/	.	8b/: 8g/: 8d/: 8B:/	.	.	.	.	.
8D/J)	.	8r	.	8ff#\	-no	-nie	.
*v	*v	*	*	*	*	*	*
=37	=37	=37	=37	=37	=37	=37
!LO:TX:t=P:problem:mixed beam	!	!LO:HP:b=2	!	!	!	!
8GG/L	(8b/L 8g/	>	8ee\	Wis-	mi	.
8B\	8dd/J 8d/	.	8dd\	-ło	ga-	.
!LO:TX:a:i:t=ralent.	!	!	!	!	!	!
8G\	8g/)	.	4.gg;\	sta-	-la-	.
8D\	8r	.	.	.	.	.
8BB\	8b/ 8g/ 8d/	]	.	.	.	.
8GG\J	8r	.	8b\	-ra	-ra	.
=38	=38	=38	=38	=38	=38	=38
!	!LO:TX:b:i:t=dolce	!LO:DY:b=2:rj	!	!	!	!
8.e\L 8.c\	8.cc\L 8.a\	p	8.cc\	bo-	to	.
16d\Jk 16B\	16dd\Jk 16b\	.	16dd\	-mi	i	.
!	!	!	!LO:TX:a:i:t=ralent.	!	!	!
(8.c\L 8.A\	(8.ee\L 8.cc\	.	(8.ee^\	pil-	wpław	.
16e\Jk 16c\)	16cc\Jk 16a\)	.	16cc\)	-no!	i	.
8.c\L 8.A\	(8.ee\L 8.cc\	.	(8.ee^\	pil-	wpław	.
16e\Jk 16c\	16cc\Jk 16a\)	.	16cc\)	-no	do	.
!!LO:PB:g=original
=39	=39	=39	=39	=39	=39	=39
*	*	*	*^	*	*	*
(8d\L	(8b/L 8g/	.	8b\	2ryy	do	niej	.
8G\J	8dd/J	.	8dd\	.	o-	po-	.
8B\)	8g/)	.	(4.b/	.	-kien-	-pły-	.
8r	8r	.	.	.	.	.	.
(4D\	(4f#/ (4c/	.	.	8ryy	.	.	.
*	*	*	*	*Xtuplet	*	*	*
*	*	*	*	*cue	*	*	*
.	.	.	8a\	24a/LL	.	.	.
.	.	.	.	24b/	.	.	.
.	.	.	.	24a/JJ)	.	.	.
*	*	*	*	*Xcue	*	*	*
*	*	*	*v	*v	*	*	*
=40	=40	=40	=40	=40	=40	=40
!!!OMD: a tempo 1mo
!	!LO:TX:b:t=(&colon;Chór&colon;)	!	!	!	!	!
8GG'/L)	8g/ 8B/))	.	4g/	-ka.	-nę,	.
8D'/	8r	.	.	.	.	.
8GG'/	8g/ 8B/	.	4r	.	.	.
8D'/	8r	.	.	.	.	.
8GG'/	8g/ 8B/	.	4r	.	.	.
8D'/J	8r	.	.	.	.	.
=41	=41	=41	=41	=41	=41	=41
*tremolo	*	*	*	*	*	*
8GG'/L	8f#/L 8c'/	.	8.a/	Płyń-	.	.
8D'/	8e/J 8c'/	.	.	.	.	.
.	.	.	16cc\	-że	.	.
8GG'/	4e/ 4c'/	.	(4cc\	Wi-	.	.
8D'/	.	.	.	.	.	.
.	.	.	16qqdd/LL	.	.	.
.	.	.	16qqcc/JJ	.	.	.
8GG'/	8e/L 8c'/	.	8b\L	-sło	.	.
8D'/J	8f#/J	.	8a\J)	.	.	.
=42	=42	=42	=42	=42	=42	=42
!LO:TX:t=P:problem:mixed beam	!	!	!	!	!	!
8GG'/L	8g/ 8B/	.	2g/	płyń!	.	.
8G'\	8r	.	.	.	.	.
8GG'/	8fn/ 8B/	.	.	.	.	.
8G'\	8r	.	.	.	.	.
8GG'/	8d/ 8B/	.	4ryy	.	.	.
8G'\J	8r	.	.	.	.	.
=43	=43	=43	=43	=43	=43	=43
!LO:TX:t=P:problem:mixed beam	!	!	!	!	!	!
8GG'/L	(8e/L 8c/	.	8g/	płyń-	.	.
8G'\	8fn/ 8d/	.	8b\	-że	.	.
8GG'/	8g/J 8e/)	.	8cc\L	Wi-	.	.
8G'\	8r	.	8dd\J	.	.	.
8GG'/	8ee/ 8g/	.	8ee\L	-sło	.	.
8G'\J	8r	.	8ffn\J	.	.	.
!!LO:LB:g=original
=44	=44	=44	=44	=44	=44	=44
(>8D/L 8GG/	8dd/ 8g/ 8fn/	.	[2.gg\	ra-	.	.
!	!	!LO:HP:b=2	!	!	!	!
8E/	8r	<	.	.	.	.
8Fn/	8b/ 8g/ 8d/	.	.	.	.	.
8G/	8r	.	.	.	.	.
8A/	8g/ 8d/	.	.	.	.	.
8B/J)	8r	[	.	.	.	.
=45	=45	=45	=45	=45	=45	=45
*ped	*	*	*	*	*	*
8C/L 8CC/	(4.gg\ 4.ee\ 4.cc\ 4.g^^\	f	4.gg\]	.	.	.
(8G/	.	.	.	.	.	.
8c/	.	.	.	.	.	.
*Xped	*	*	*	*	*	*
!	!	!	!	!	!	!
8E/	8ee\L 8cc\	.	8ee\	-źno!	.	.
8B/	8dd\ 8b\	.	8dd\	płyń-	.	.
8G#X/J)	8ffn\J 8dd\)	.	8ffn\	-że	.	.
=46	=46	=46	=46	=46	=46	=46
2A\	(8ee/L 8cc/	.	8ee\	Wi-	.	.
!	!	!	!	!	!	!LO:DY:a
.	8cc/J 8e/	>	8cc\	-sło	.	>
.	8a/L 8c/	.	4.a/	sta-	.	.
.	8e/	.	.	.	.	.
4C/	8g/ 8e-X/	.	.	.	.	.
.	8c/J)	]	16b/LL	-ra!	.	]
.	.	.	16cc/JJ	.	.	.
=47	=47	=47	=47	=47	=47	=47
!	!	!	!	!	!	!LO:DY:a
2D/ 2DD/	(8f#/L	<	8dd\	płyń-	.	<
.	8d/J 8c/	.	8dd#X\	-że	.	.
.	8cc/L 8a/ 8f#/	.	4.ee\	raź-	.	[
.	8d/	.	.	.	.	.
4D\	8a/ 8f#/	[	.	.	.	.
.	8d/J)	.	8ddn\	-no!	.	.
=48	=48	=48	=48	=48	=48	=48
*	*^	*	*	*	*	*
(8d\L 8B\	(<8dd/L 8b/	2d\	>	8dd\	nie	.	.
8c#X\J 8A#X\	8cc#X/J 8a#X/	.	.	8ee\	ską	.	.
4cn\ 4An;\)	4ccn/ 4a#;/)	.	]	4.ff#;\	two-	.	.
4A\ 4D'\	4ryy	4ff#\ 4dd\ 4cc\ 4an'\	sf	.	.	.	.
.	.	.	.	8dd\	-ich	.	.
*	*v	*v	*	*	*	*	*
!!LO:LB:g=original
=49	=49	=49	=49	=49	=49	=49
*^	*	*	*	*	*	*
!LO:N:vis=2	!	!	!LO:DY:rj	!	!	!	!
(<8GG/L	2.GG\	(8gg\L 8b\	f	[2.gg\	fal.	.	.
8D/	.	8bb\J	.	.	.	.	.
8G/	.	4.dd\ 4.b\	.	.	.	.	.
8D/	.	.	.	.	.	.	.
8B/	.	.	.	.	.	.	.
8D/J)	.	8gg\	.	.	.	.	.
=50	=50	=50	=50	=50	=50	=50	=50
!LO:N:vis=2	!	!	!	!	!	!	!
8GG/L	(2.GG\	8b\L	.	2.gg\]	.	.	.
8D/	.	8dd\J	.	.	.	.	.
8G/	.	4.g/	.	.	.	.	.
8D/	.	.	.	.	.	.	.
8B/	.	.	.	.	.	.	.
8D/J)	.	8b/	.	.	.	.	.
=51	=51	=51	=51	=51	=51	=51	=51
!LO:N:vis=2	!	!	!	!	!	!	!
8GG/L	(2.GG\	8B/L	.	4g/	.	.	.
8D/	.	8d/	>	.	.	.	.
8E/	.	8g/	.	4r	.	.	.
8D/	.	8b/	.	.	.	.	.
8B/	.	8dd/	.	4r	.	.	.
8D/J)	.	8b/J	]]	.	.	.	.
=52	=52	=52	=52	=52	=52	=52	=52
!LO:TX:t=1ma.	!	!	!	!	!	!	!
*>B1	*>B1	*>B1	*	*>B1	*	*	*
!LO:N:vis=2	!	!	!	!	!	!	!
8GG/L	(2GG\	8a/L	.	2.r	.	.	.
8D/	.	8f#/J	.	.	.	.	.
8A/	.	2d/)	.	.	.	.	.
8D/	.	.	.	.	.	.	.
8c/ 8F#/)	4r	.	.	.	.	.	.
8D/J	.	.	.	.	.	.	.
*v	*v	*	*	*	*	*	*
=53:|!	=53:|!	=53:|!	=53:|!	=53:|!	=53:|!	=53:|!
!LO:TX:t=2da.	!	!	!	!	!	!
*>B2	*>B2	*	*>B2	*	*	*
4G'\	4g'/	.	2.r	.	.	.
4BB'/	4g/ 4d/ 4G'/	.	.	.	.	.
*ped	*	*	*	*	*	*
[>4D/	(4g/ 4d/ 4B/	>	.	.	.	.
=54	=54	=54	=54	=54	=54	=54
*>C	*>C	*	*>C	*	*	*
2.D/] 2.GG/	2.gg\ 2.b\ 2.g;\)	]	2.r;	.	.	.
==	==	==	==	==	==	==
*-	*-	*-	*-	*-	*-	*-
!!!system-decoration: {s1,<(g1)>}
!!!AIN: 1 empty 1 forte
!!!ENC: Andrzej Gręziak
!!!END: 2021-08-17
!!!RDF**kern: > = above
!!!RDF**kern: < = below
!!!RDF**dynam: < = cres.
!!!EED: Andrzej Borzym
!!!EST: 2021-09-23
